X: 69
T: No_31_I_Will_Shoot_Him_Through_the_Heart.krn
N: Derived from No_31_I_Will_Shoot_Him_Through_the_Heart.krn
%%abc-version 2.0
%%abcx-abcm2ps-target-version 5.9.1 (29 Sep 2008)
%%abc-creator hum2abc beta
%%abcx-conversion-date 2019/03/15 08:35:44
%%humdrum-veritas 4228860730
%%humdrum-veritas-data 3299818906
%%linebreak <none>
%%barnumbers 0
L: 1/4
M: 3/4
K: C clef=bass
[K:clef=bass][M:3/4]EE/E/C [I:setbarnb 2]| 
C3 | 
B,3/A,/F, | 
A,A,/A,/A, | 
A,3 | 
E,zA, ||  
[M:2/4]A,2 ||  
[M:3/4]EE/E/C | 
C3 | 
B,3/A,/F, | 
A,A,/A,/A, | 
A,3 | 
E,zA, ||  
[M:2/4]A,2 :|]  



